packages/ui-icons/svg/Line/quiz-instructions.svg

<svg viewBox="0 0 1920 1920" xmlns="http://www.w3.org/2000/svg">
    <path d="M1920 332v1257H0V332h1920Zm-115 114H115v1032h1690V446Zm-574 683v113H409v-113h822Zm275-226v113H409V903h1097Zm-275-226v113H409V677h822Z" fill-rule="evenodd"/>
</svg>

<svg viewBox="0 0 1920 1920" version="1.1" xmlns="http://www.w3.org/2000/svg">
    <path d="M1920,332 L1920,1589 L0,1589 L0,332 L1920,332 Z M1805,446 L115,446 L115,1478 L1805,1478 L1805,446 Z M1231,1129 L1231,1242 L409,1242 L409,1129 L1231,1129 Z M1506,903 L1506,1016 L409,1016 L409,903 L1506,903 Z M1231,677 L1231,790 L409,790 L409,677 L1231,677 Z" stroke="none" stroke-width="1" fill-rule="evenodd"/>
</svg>
